src/24x24/places/folder-gruvbox-original-red-linux.svg

<?xml version="1.0" encoding="UTF-8"?>
<svg width="24" height="24" version="1" xmlns="http://www.w3.org/2000/svg">
 <rect x="2" y="9.5" width="20" height="12" rx="1" ry="1" opacity=".2"/>
 <path d="m2 17c0 0.554 0.446 1 1 1h18c0.554 0 1-0.446 1-1v-11c0-0.554-0.446-1-1-1h-9c-1.5 0-2-2-3.5-2h-5.5c-0.554 0-1 0.446-1 1" fill="#9d0006"/>
 <rect x="2" y="8.5" width="20" height="12" rx="1" ry="1" opacity=".2"/>
 <rect x="4" y="7" width="16" height="8" rx="1" ry="1" fill="#efd2b3"/>
 <rect x="2" y="9" width="20" height="12" rx="1" ry="1" fill="#fb4934"/>
 <path d="m3 3c-0.554 0-1 0.446-1 1v0.5c0-0.554 0.446-1 1-1h5.5c1.5 0 2 2 3.5 2h9c0.554 0 1 0.446 1 1v-0.5c0-0.554-0.446-1-1-1h-9c-1.5 0-2-2-3.5-2z" fill="#efd2b3" opacity=".1"/>
 <path d="m12.88 16.037c-0.56 0.26-1.081 0.258-1.431 0.232-0.417-0.03-0.753-0.144-0.9-0.244-0.091-0.061-0.215-0.038-0.276 0.053-0.062 0.091-0.038 0.215 0.053 0.276 0.237 0.161 0.656 0.28 1.095 0.312 0.074 5e-3 0.155 9e-3 0.243 9e-3 0.381 0 0.866-0.037 1.384-0.278 0.099-0.046 0.142-0.164 0.096-0.264-0.046-0.099-0.165-0.142-0.264-0.096zm2.21-0.295c0.019-1.727 0.196-4.991-3.11-4.727-3.2645 0.263-2.3989 3.711-2.4476 4.866-0.0431 0.611-0.2459 1.358-0.5324 2.118h0.8824c0.0907-0.322 0.1576-0.641 0.1866-0.944 0.053 0.037 0.11 0.073 0.17 0.107 0.099 0.058 0.184 0.136 0.274 0.218 0.21 0.191 0.448 0.408 0.914 0.435 0.031 2e-3 0.063 3e-3 0.093 3e-3 0.471 0 0.793-0.206 1.052-0.372 0.124-0.079 0.231-0.147 0.332-0.18 0.287-0.09 0.537-0.235 0.724-0.419 0.029-0.029 0.056-0.058 0.082-0.089 0.104 0.382 0.247 0.812 0.405 1.241h1.884c-0.452-0.699-0.919-1.383-0.909-2.257zm-5.2416-0.939-1e-4 -1e-3c-0.0324-0.563 0.2377-1.037 0.6027-1.059 0.365-0.021 0.687 0.419 0.719 0.983h1e-3c1e-3 0.03 2e-3 0.06 2e-3 0.09-0.116 0.029-0.22 0.071-0.313 0.121-1e-3 -5e-3 -1e-3 -9e-3 -2e-3 -0.013-0.031-0.32-0.202-0.562-0.381-0.54-0.18 0.022-0.3 0.299-0.269 0.619 0.014 0.14 0.054 0.265 0.11 0.359-0.014 0.011-0.054 0.04-0.099 0.073-0.034 0.025-0.075 0.055-0.125 0.092-0.1359-0.179-0.229-0.435-0.2457-0.724zm3.6986 1.393c-0.013 0.298-0.403 0.578-0.762 0.69l-3e-3 1e-3c-0.149 0.049-0.283 0.134-0.424 0.225-0.237 0.151-0.483 0.309-0.837 0.309-0.024 0-0.048-1e-3 -0.071-3e-3 -0.325-0.019-0.477-0.157-0.669-0.332-0.102-0.093-0.206-0.188-0.342-0.268l-2e-3 -1e-3c-0.292-0.165-0.4736-0.37-0.4852-0.548-0.0057-0.089 0.0338-0.166 0.1172-0.229 0.182-0.136 0.304-0.225 0.385-0.284 0.09-0.066 0.117-0.086 0.137-0.105 0.014-0.013 0.029-0.028 0.046-0.045 0.167-0.162 0.447-0.434 0.876-0.434 0.263 0 0.553 0.101 0.862 0.3 0.146 0.095 0.273 0.139 0.434 0.194 0.11 0.038 0.235 0.081 0.403 0.153l3e-3 1e-3c0.156 0.065 0.341 0.182 0.332 0.376zm-0.086-0.7c-0.03-0.015-0.061-0.029-0.094-0.043-0.151-0.065-0.272-0.108-0.373-0.143 0.056-0.109 0.09-0.245 0.093-0.392 8e-3 -0.358-0.172-0.648-0.403-0.649-0.23-1e-3 -0.423 0.289-0.431 0.647v0.035c-0.142-0.065-0.282-0.112-0.418-0.142-1e-3 -0.013-2e-3 -0.027-2e-3 -0.04-0.013-0.653 0.387-1.192 0.894-1.206s0.928 0.504 0.942 1.156c5e-3 0.295-0.073 0.567-0.208 0.777z" fill="#442e2d"/>
</svg>

<svg xmlns="http://www.w3.org/2000/svg" width="24" height="24" version="1">
 <rect style="opacity:0.2" width="20" height="12" x="2" y="9.5" rx="1" ry="1"/>
 <path style="fill:#9d0006" d="M 2,17 C 2,17.554 2.446,18 3,18 H 21 C 21.554,18 22,17.554 22,17 V 6 C 22,5.446 21.554,5 21,5 H 12 C 10.5,5 10,3 8.5,3 H 3 C 2.446,3 2,3.446 2,4"/>
 <rect style="opacity:0.2" width="20" height="12" x="2" y="8.5" rx="1" ry="1"/>
 <rect style="fill:#efd2b3" width="16" height="8" x="4" y="7" rx="1" ry="1"/>
 <rect style="fill:#fb4934" width="20" height="12" x="2" y="9" rx="1" ry="1"/>
 <path style="opacity:0.1;fill:#efd2b3" d="M 3,3 C 2.446,3 2,3.446 2,4 V 4.5 C 2,3.946 2.446,3.5 3,3.5 H 8.5 C 10,3.5 10.5,5.5 12,5.5 H 21 C 21.554,5.5 22,5.946 22,6.5 V 6 C 22,5.446 21.554,5 21,5 H 12 C 10.5,5 10,3 8.5,3 Z"/>
 <path style="fill:#442e2d" d="M 12.88,16.037 C 12.32,16.297 11.799,16.295 11.449,16.269 11.032,16.239 10.696,16.125 10.549,16.025 10.458,15.964 10.334,15.987 10.273,16.078 10.211,16.169 10.235,16.293 10.326,16.354 10.563,16.515 10.982,16.634 11.421,16.666 11.495,16.671 11.576,16.675 11.664,16.675 12.045,16.675 12.53,16.638 13.048,16.397 13.147,16.351 13.19,16.233 13.144,16.133 13.098,16.034 12.979,15.991 12.88,16.037 Z M 15.09,15.742 C 15.109,14.015 15.286,10.751 11.98,11.015 8.7155,11.278 9.5811,14.726 9.5324,15.881 9.4893,16.492 9.2865,17.239 9,17.999 H 9.8824 C 9.9731,17.677 10.04,17.358 10.069,17.055 10.122,17.092 10.179,17.128 10.239,17.162 10.338,17.22 10.423,17.298 10.513,17.38 10.723,17.571 10.961,17.788 11.427,17.815 11.458,17.817 11.49,17.818 11.52,17.818 11.991,17.818 12.313,17.612 12.572,17.446 12.696,17.367 12.803,17.299 12.904,17.266 13.191,17.176 13.441,17.031 13.628,16.847 13.657,16.818 13.684,16.789 13.71,16.758 13.814,17.14 13.957,17.57 14.115,17.999 H 15.999 C 15.547,17.3 15.08,16.616 15.09,15.742 Z M 9.8484,14.803 C 9.8484,14.803 9.8484,14.803 9.8483,14.802 9.8159,14.239 10.086,13.765 10.451,13.743 10.816,13.722 11.138,14.162 11.17,14.726 11.17,14.726 11.171,14.726 11.171,14.726 11.172,14.756 11.173,14.786 11.173,14.816 11.057,14.845 10.953,14.887 10.86,14.937 10.859,14.932 10.859,14.928 10.858,14.924 V 14.924 C 10.827,14.604 10.656,14.362 10.477,14.384 10.297,14.406 10.177,14.683 10.208,15.003 10.208,15.003 10.208,15.003 10.208,15.003 10.222,15.143 10.262,15.268 10.318,15.362 10.304,15.373 10.264,15.402 10.219,15.435 10.185,15.46 10.144,15.49 10.094,15.527 9.9581,15.348 9.865,15.092 9.8483,14.803 Z M 13.547,16.196 C 13.534,16.494 13.144,16.774 12.785,16.886 L 12.782,16.887 C 12.633,16.936 12.499,17.021 12.358,17.112 12.121,17.263 11.875,17.421 11.521,17.421 11.497,17.421 11.473,17.42 11.45,17.418 11.125,17.399 10.973,17.261 10.781,17.086 10.679,16.993 10.575,16.898 10.439,16.818 L 10.437,16.817 C 10.145,16.652 9.9634,16.447 9.9518,16.269 9.9461,16.18 9.9856,16.103 10.069,16.04 10.251,15.904 10.373,15.815 10.454,15.756 10.544,15.69 10.571,15.67 10.591,15.651 10.605,15.638 10.62,15.623 10.637,15.606 10.804,15.444 11.084,15.172 11.513,15.172 11.776,15.172 12.066,15.273 12.375,15.472 12.521,15.567 12.648,15.611 12.809,15.666 12.919,15.704 13.044,15.747 13.212,15.819 L 13.215,15.82 C 13.371,15.885 13.556,16.002 13.547,16.196 Z M 13.461,15.496 C 13.431,15.481 13.4,15.467 13.367,15.453 13.216,15.388 13.095,15.345 12.994,15.31 13.05,15.201 13.084,15.065 13.087,14.918 V 14.918 C 13.095,14.56 12.915,14.27 12.684,14.269 12.454,14.268 12.261,14.558 12.253,14.916 V 14.916 C 12.253,14.928 12.253,14.94 12.253,14.951 12.111,14.886 11.971,14.839 11.835,14.809 11.834,14.796 11.833,14.782 11.833,14.769 V 14.769 C 11.82,14.116 12.22,13.577 12.727,13.563 13.234,13.549 13.655,14.067 13.669,14.719 V 14.719 C 13.674,15.014 13.596,15.286 13.461,15.496 Z"/>
</svg>
